Numix-Light/16/status/indicator-keyboard-Uk-6.svg

<?xml version="1.0" encoding="UTF-8" standalone="no"?>
<svg
   xmlns:dc="http://purl.org/dc/elements/1.1/"
   xmlns:cc="http://creativecommons.org/ns#"
   xmlns:rdf="http://www.w3.org/1999/02/22-rdf-syntax-ns#"
   xmlns:svg="http://www.w3.org/2000/svg"
   xmlns="http://www.w3.org/2000/svg"
   xmlns:sodipodi="http://sodipodi.sourceforge.net/DTD/sodipodi-0.dtd"
   xmlns:inkscape="http://www.inkscape.org/namespaces/inkscape"
   viewBox="0 0 16 16"
   id="svg2"
   version="1.1"
   inkscape:version="0.91 r13725"
   sodipodi:docname="indicator-keyboard-Uk-6.svg">
  <metadata
     id="metadata14">
    <rdf:RDF>
      <cc:Work
         rdf:about="">
        <dc:format>image/svg+xml</dc:format>
        <dc:type
           rdf:resource="http://purl.org/dc/dcmitype/StillImage" />
      </cc:Work>
    </rdf:RDF>
  </metadata>
  <defs
     id="defs12" />
  <sodipodi:namedview
     pagecolor="#ffffff"
     bordercolor="#666666"
     borderopacity="1"
     objecttolerance="10"
     gridtolerance="10"
     guidetolerance="10"
     inkscape:pageopacity="0"
     inkscape:pageshadow="2"
     inkscape:window-width="459"
     inkscape:window-height="369"
     id="namedview10"
     showgrid="false"
     inkscape:zoom="14.75"
     inkscape:cx="8"
     inkscape:cy="8"
     inkscape:window-x="0"
     inkscape:window-y="0"
     inkscape:window-maximized="0"
     inkscape:current-layer="svg2" />
  <path
     style="fill:#353535;fill-opacity:1"
     d="M 1.5996094 0 C 0.71320937 2.9605947e-16 0 0.71320937 0 1.5996094 L 0 14.400391 C 2.9605947e-16 15.286791 0.71320937 16 1.5996094 16 L 14.400391 16 C 15.286791 16 16 15.286791 16 14.400391 L 16 1.5996094 C 16 0.71320937 15.286791 0 14.400391 0 L 1.5996094 0 z M 8.328125 4.1113281 L 8.328125 8.5390625 C 8.478125 8.3950625 8.6460312 8.2309219 8.8320312 8.0449219 C 9.0180312 7.8589219 9.204625 7.6705156 9.390625 7.4785156 C 9.582625 7.2865156 9.7616875 7.0999219 9.9296875 6.9199219 C 10.097687 6.7399219 10.241328 6.5813594 10.361328 6.4433594 L 11.064453 6.4433594 C 10.926453 6.5873594 10.769703 6.7496875 10.595703 6.9296875 C 10.421703 7.1096875 10.238875 7.2980937 10.046875 7.4960938 C 9.8608751 7.6880937 9.6762344 7.8765 9.4902344 8.0625 L 8.984375 8.5664062 C 9.170375 8.6924063 9.3700781 8.8547344 9.5800781 9.0527344 C 9.7960781 9.2507344 10.004985 9.4671719 10.208984 9.7011719 C 10.418984 9.9291721 10.614922 10.166109 10.794922 10.412109 C 10.980922 10.652109 11.135719 10.879703 11.261719 11.095703 L 10.568359 11.095703 C 10.424359 10.855703 10.260219 10.622531 10.074219 10.394531 C 9.8942189 10.160531 9.7020469 9.9403283 9.4980469 9.7363281 C 9.3000469 9.5323281 9.0985313 9.3476875 8.8945312 9.1796875 C 8.6965312 9.0116875 8.508125 8.8698594 8.328125 8.7558594 L 8.328125 11.095703 L 7.7441406 11.095703 L 7.7441406 4.2207031 L 8.328125 4.1113281 z M 1.6347656 4.859375 L 2.2480469 4.859375 L 2.2480469 8.7011719 C 2.2480469 9.0431719 2.2852813 9.34175 2.3632812 9.59375 C 2.4472812 9.83975 2.5630313 10.043078 2.7070312 10.205078 C 2.8510312 10.367078 3.0245156 10.486453 3.2285156 10.564453 C 3.4325156 10.642453 3.6601094 10.681641 3.9121094 10.681641 C 4.1641094 10.681641 4.3917031 10.642453 4.5957031 10.564453 C 4.7997031 10.486453 4.9731875 10.367078 5.1171875 10.205078 C 5.2611875 10.043078 5.3731719 9.83975 5.4511719 9.59375 C 5.5351719 9.34175 5.5761719 9.0431719 5.5761719 8.7011719 L 5.5761719 4.859375 L 6.1894531 4.859375 L 6.1894531 8.7832031 C 6.1894531 9.1252031 6.1465 9.4460938 6.0625 9.7460938 C 5.9845 10.040094 5.8557813 10.297531 5.6757812 10.519531 C 5.4957812 10.741531 5.2588438 10.916969 4.9648438 11.042969 C 4.6768437 11.168969 4.3261094 11.230469 3.9121094 11.230469 C 3.4981094 11.230469 3.1436094 11.168969 2.8496094 11.042969 C 2.5616094 10.916969 2.3284375 10.741531 2.1484375 10.519531 C 1.9684375 10.297531 1.8359531 10.040094 1.7519531 9.7460938 C 1.6739531 9.4460938 1.6347656 9.1252031 1.6347656 8.7832031 L 1.6347656 4.859375 z M 14.095703 8.8242188 L 14.119141 9.1464844 C 13.881241 9.1620844 13.661784 9.1993125 13.458984 9.2578125 C 13.260084 9.3124125 13.081781 9.4005844 12.925781 9.5214844 C 12.769781 9.6384843 12.638503 9.7893625 12.533203 9.9765625 C 12.427903 10.163763 12.357359 10.394969 12.318359 10.667969 C 12.423659 10.613369 12.549066 10.566344 12.697266 10.527344 C 12.845466 10.484444 13.004175 10.462891 13.171875 10.462891 C 13.390275 10.462891 13.574463 10.498159 13.726562 10.568359 C 13.878663 10.634659 14.002103 10.722838 14.095703 10.835938 C 14.189303 10.949038 14.257881 11.080316 14.300781 11.228516 C 14.343681 11.376716 14.365234 11.533466 14.365234 11.697266 C 14.365234 11.849366 14.341722 12.000244 14.294922 12.152344 C 14.248122 12.304444 14.173666 12.443559 14.072266 12.568359 C 13.974766 12.689259 13.849366 12.789187 13.697266 12.867188 C 13.549066 12.945188 13.372716 12.984375 13.166016 12.984375 C 12.740916 12.984375 12.417612 12.835463 12.195312 12.539062 C 11.976912 12.238762 11.867188 11.821409 11.867188 11.287109 C 11.867188 10.495409 12.055294 9.8958281 12.433594 9.4863281 C 12.815794 9.0768281 13.370303 8.8554188 14.095703 8.8242188 z M 13.136719 10.794922 C 12.957319 10.794922 12.798609 10.816475 12.662109 10.859375 C 12.529509 10.898375 12.406063 10.9454 12.289062 11 C 12.281263 11.0663 12.277344 11.119203 12.277344 11.158203 L 12.277344 11.292969 C 12.277344 11.476269 12.2891 11.650653 12.3125 11.814453 C 12.3398 11.978253 12.384872 12.121294 12.451172 12.246094 C 12.521372 12.370894 12.613463 12.470822 12.726562 12.544922 C 12.839663 12.615122 12.984656 12.650391 13.160156 12.650391 C 13.304456 12.650391 13.427897 12.624919 13.529297 12.574219 C 13.630697 12.519619 13.711037 12.449081 13.773438 12.363281 C 13.835838 12.277481 13.880903 12.177553 13.908203 12.064453 C 13.939403 11.951353 13.955078 11.833784 13.955078 11.708984 C 13.955078 11.396984 13.884541 11.165778 13.744141 11.017578 C 13.607641 10.869378 13.405819 10.794922 13.136719 10.794922 z "
     id="path4" />
</svg>

<svg xmlns="http://www.w3.org/2000/svg" viewBox="0 0 16 16">
 <path d="m 1.6 0 c -0.886 0 -1.6 0.713 -1.6 1.6 l 0 12.801 c 0 0.886 0.713 1.6 1.6 1.6 l 12.801 0 c 0.886 0 1.6 -0.713 1.6 -1.6 l 0 -12.801 c 0 -0.886 -0.713 -1.6 -1.6 -1.6 l -12.801 0 z m 6.729 4.111 l 0 4.428 c 0.15 -0.144 0.318 -0.308 0.504 -0.494 c 0.186 -0.186 0.373 -0.374 0.559 -0.566 c 0.192 -0.192 0.371 -0.379 0.539 -0.559 c 0.168 -0.18 0.312 -0.339 0.432 -0.477 l 0.703 0 c -0.138 0.144 -0.295 0.306 -0.469 0.486 c -0.174 0.18 -0.357 0.368 -0.549 0.566 c -0.186 0.192 -0.371 0.38 -0.557 0.566 l -0.506 0.504 c 0.186 0.126 0.386 0.288 0.596 0.486 c 0.216 0.198 0.425 0.414 0.629 0.648 c 0.21 0.228 0.406 0.465 0.586 0.711 c 0.186 0.24 0.341 0.468 0.467 0.684 l -0.693 0 c -0.144 -0.24 -0.308 -0.473 -0.494 -0.701 c -0.18 -0.234 -0.372 -0.454 -0.576 -0.658 c -0.198 -0.204 -0.4 -0.389 -0.604 -0.557 c -0.198 -0.168 -0.386 -0.31 -0.566 -0.424 l 0 2.34 l -0.584 0 l 0 -6.875 l 0.584 -0.109 z m -6.693 0.748 l 0.613 0 l 0 3.842 c 0 0.342 0.037 0.641 0.115 0.893 c 0.084 0.246 0.2 0.449 0.344 0.611 c 0.144 0.162 0.317 0.281 0.521 0.359 c 0.204 0.078 0.432 0.117 0.684 0.117 c 0.252 0 0.48 -0.039 0.684 -0.117 c 0.204 -0.078 0.377 -0.197 0.521 -0.359 c 0.144 -0.162 0.256 -0.365 0.334 -0.611 c 0.084 -0.252 0.125 -0.551 0.125 -0.893 l 0 -3.842 l 0.613 0 l 0 3.924 c 0 0.342 -0.043 0.663 -0.127 0.963 c -0.078 0.294 -0.207 0.551 -0.387 0.773 c -0.18 0.222 -0.417 0.397 -0.711 0.523 c -0.288 0.126 -0.639 0.188 -1.053 0.188 c -0.414 0 -0.769 -0.061 -1.063 -0.188 c -0.288 -0.126 -0.521 -0.301 -0.701 -0.523 c -0.18 -0.222 -0.312 -0.479 -0.396 -0.773 c -0.078 -0.3 -0.117 -0.621 -0.117 -0.963 l 0 -3.924 z m 12.461 3.965 l 0.023 0.322 c -0.238 0.016 -0.457 0.053 -0.66 0.111 c -0.199 0.055 -0.377 0.143 -0.533 0.264 c -0.156 0.117 -0.287 0.268 -0.393 0.455 c -0.105 0.187 -0.176 0.418 -0.215 0.691 c 0.105 -0.055 0.231 -0.102 0.379 -0.141 c 0.148 -0.043 0.307 -0.064 0.475 -0.064 c 0.218 0 0.403 0.035 0.555 0.105 c 0.152 0.066 0.276 0.154 0.369 0.268 c 0.094 0.113 0.162 0.244 0.205 0.393 c 0.043 0.148 0.064 0.305 0.064 0.469 c 0 0.152 -0.024 0.303 -0.07 0.455 c -0.047 0.152 -0.121 0.291 -0.223 0.416 c -0.098 0.121 -0.223 0.221 -0.375 0.299 c -0.148 0.078 -0.325 0.117 -0.531 0.117 c -0.425 0 -0.748 -0.149 -0.971 -0.445 c -0.218 -0.3 -0.328 -0.718 -0.328 -1.252 c 0 -0.792 0.188 -1.391 0.566 -1.801 c 0.382 -0.409 0.937 -0.631 1.662 -0.662 z m -0.959 1.971 c -0.179 0 -0.338 0.022 -0.475 0.064 c -0.133 0.039 -0.256 0.086 -0.373 0.141 c -0.008 0.066 -0.012 0.119 -0.012 0.158 l 0 0.135 c 0 0.183 0.012 0.358 0.035 0.521 c 0.027 0.164 0.072 0.307 0.139 0.432 c 0.07 0.125 0.162 0.225 0.275 0.299 c 0.113 0.07 0.258 0.105 0.434 0.105 c 0.144 0 0.268 -0.025 0.369 -0.076 c 0.101 -0.055 0.182 -0.125 0.244 -0.211 c 0.062 -0.086 0.107 -0.186 0.135 -0.299 c 0.031 -0.113 0.047 -0.231 0.047 -0.355 c 0 -0.312 -0.071 -0.543 -0.211 -0.691 c -0.137 -0.148 -0.338 -0.223 -0.607 -0.223 z" style="fill:#353535;fill-opacity:1"/>
</svg>
